X: 26349
T: Mermaid Song, The
R: jig
M: 6/8
K: Dmajor
|:e>da>B e>d d2|e>da>B e>d d2|e>da>B e>d d2|e>da>B e>d A2|
A>fe>d A>d d2|A>fe>d A>d B2|A>fe>d A>fe>d|A>fe>d A>d d2|A>fe>d A>d B2:|

